X:295
T: VOLL ZAERTLICHKEIT WILL ICH DER DIRNE SAGEN
N: F0514A
O: Europa, Mitteleuropa, Deutschland
R: Studenten - Lied, Liebe
M: 4/4
L: 1/16
K: C
G,4 | C3DE3DC3B,C3A, | G,8E,2
G,2G,2G,2 | A,4D4C4B,4 | C4z8
G,4 | C3DE3DC3B,C3A, | G,8E,2
G,2G,2G,2 | A,4D4C4B,4 | C8z4
C4 | B,3CD6G,2G,2G,2 | C3DE3DC4
C4 | B,3CD6G,2G,2G,2 | C3DE3DC4
G,4 | C3DE3DC3B,C2A,2 | G,6F,2E,2
G,2G,2G,2 | A,4D4C3B,A,3B, | C4z8
C4 | B,3CD6G,2G,2G,2 | C3DE3DC4
C4 | B,3CD6G,2G,2G,2 | C3DE3DC4
G,4 | C3DE3DC3B,C2A,2 | G,6F,2E,2
G,2G,2G,2 | A,4D4C3B,A,3B, | C4z8

@@@ Tune index: 5726
